X:1
T:Scottish de St Malo
C:Traditionnel, fichier ABC par Bernard Loffet
L:1/8
Q:320
M:2/2
K:C
|:[BG,]A[BG,]c[B2G,2][B2G,2]|[AD,]G[AD,]B[cD,]B[AD,]G|[BG,]A[BG,]c[B2G,2][B2G,2]|[A2D,2][A2D,2][G2G,2]G,2:|[B2G,2][d2G,2][g2C,2][g2C,2]|[^f2D,2][e2D,2][d2G,2]G,2| \
[BG,]A[BG,]c[B2G,2][B2G,2]|[AD,]G[AD,]B[cD,]B[AD,]G|[B2G,2][d2G,2][g2C,2][g2C,2]|[^f2D,2][e2D,2][d2G,2]G,2|[BG,]A[BG,]c[B2G,2][B2G,2]|[A2D,2][A2D,2][G2G,2]G,2| \
Z:Created with TablEdit http://www.tabledit.com/ by Bernard Loffet
